X: 1
T: Follow Me Down
M: 4/4
L: 1/8
R: reel
K: Bdor
BcBA FGA2|BABc defe|dcdA FABb|afec dBB2:|
fd~d2 fdad|cA~A2 cde=g|fd~d2 fdab|afec dBB2|
bafg afec|dcdA FAdA|BABc dfbg|afec dBB2:|
